X:90
T:Clinch Mountain Backstep
C:Arr. Roland White
N:
R:bluegrass
L:1/8
Q:1/4=252
M:4/4
K:A
z6 aa |: "A"a2 =g2 e2 g2 | ed =c2 A2 e=g | a2 =g2 e2 d2 | "E"d[ee] [ee]e [e2e2] e=g | 
"A"a2 =g2 e2 eg | ed =c2 A2 cd | "E"e2 d2 =cA d2 |1 =G"A"[AA] [AA]A [A2A2] e=g :|2 =G"A"[AA] [AA]A [A2A2] E2 | 
|: "A"[AA]A [AA]A [A2A2] =cd | e2 d2 =cA =G2 | [AA]A [AA]A [A2A2] AA | 
M:2/4
=c2 d2 | 
M:4/4
{^d}"E"ee [ee]e [e2e2] a=g | "A"a2 =g2 e2 eg | ed =c2 A2 cd | "E"e2 d2 =cA d2 | 
|1 [AA]"A"[AA] A2 [A2A2] E2 :|2 [AA]"A"A [A2A2] [A4A4] | 


